X:82
T:Nancy Hanks
S:American Veteran Fifer #82
C:J.L.Blatchley, Port Crane, N.Y.
M:2/4
L:1/8
Q:1/8=180
K:D 
%%MIDI program 72
%%MIDI transpose 8
%%MIDI ratio 3 1
A | AF/A/ dA/d/ | fd/f/ a>f | gg/f/ eA | ff/e/ dA |
AF/A/ dA/d/ | fd/f/ a>f | gg/f/ ec | dfd :|
|: A | gg/f/ eA | ff/e/ dA | c/d/e/f/ gf | e/d/c/B/ A2 |
dd/e/ fd | c/d/e/f/ ge | af gf/e/ | dfd :|


